frontend/frontend/icon/light.svg

<?xml version="1.0" encoding="UTF-8" standalone="no"?>
<svg
   version="1.1"
   x="0px"
   y="0px"
   viewBox="0 0 100 100"
   enable-background="new 0 0 100 100"
   xml:space="preserve"
   id="svg4"
   sodipodi:docname="light.svg"
   inkscape:version="1.2.1 (9c6d41e410, 2022-07-14)"
   xmlns:inkscape="http://www.inkscape.org/namespaces/inkscape"
   xmlns:sodipodi="http://sodipodi.sourceforge.net/DTD/sodipodi-0.dtd"
   xmlns="http://www.w3.org/2000/svg"
   xmlns:svg="http://www.w3.org/2000/svg"><defs
     id="defs8"><inkscape:path-effect
       effect="bspline"
       id="path-effect1893"
       is_visible="true"
       lpeversion="1"
       weight="33.333333"
       steps="2"
       helper_size="0"
       apply_no_weight="true"
       apply_with_weight="true"
       only_selected="false" /><inkscape:path-effect
       effect="bspline"
       id="path-effect1782"
       is_visible="true"
       lpeversion="1"
       weight="33.333333"
       steps="2"
       helper_size="0"
       apply_no_weight="true"
       apply_with_weight="true"
       only_selected="false" /></defs><sodipodi:namedview
     id="namedview6"
     pagecolor="#ffffff"
     bordercolor="#000000"
     borderopacity="0.25"
     inkscape:showpageshadow="2"
     inkscape:pageopacity="0.0"
     inkscape:pagecheckerboard="0"
     inkscape:deskcolor="#d1d1d1"
     showgrid="false"
     inkscape:zoom="2.035"
     inkscape:cx="73.710074"
     inkscape:cy="-7.1253071"
     inkscape:window-width="1920"
     inkscape:window-height="1001"
     inkscape:window-x="-9"
     inkscape:window-y="-9"
     inkscape:window-maximized="1"
     inkscape:current-layer="svg4" /><path
     style="fill:#00ffff;fill-opacity:1;stroke-width:1.13421"
     d="M 4.0385939,11.690408 C 3.8526443,7.3201693 7.565193,4.7170607 14.062701,3.4155855 c 6.497508,-1.3014752 15.778696,-1.3014752 21.718687,0.558573 5.939991,1.8600482 8.538723,5.5786999 13.272283,6.7865425 4.73356,1.207842 11.601638,-0.09369 17.077307,-2.4178898 5.475669,-2.3242035 9.559392,-5.6709916 14.200606,-4.4617026 4.641214,1.2092889 9.838678,6.9732004 11.508654,12.3651244 1.669977,5.391925 -0.186258,10.412106 -0.278772,16.269521 -0.09251,5.857416 1.578099,12.55099 3.434376,20.453371 1.856277,7.90238 3.89814,17.01308 1.206497,23.706068 C 93.510695,83.368181 86.085746,87.644629 76.43323,91.177454 66.780713,94.710279 54.900793,97.49927 48.589219,97.500008 42.277645,97.500747 41.53515,94.711756 35.409735,93.130642 29.28432,91.549528 17.775647,91.177664 12.113417,85.414065 6.4511874,79.650466 6.636811,68.494506 5.4673064,59.447666 4.2978018,50.400827 1.7726696,43.463135 2.7007894,38.627829 3.6289093,33.792524 8.0100564,31.061855 8.1591612,26.62914 8.3082661,22.196424 4.2245436,16.060647 4.0385939,11.690408 Z"
     id="path1891"
     inkscape:path-effect="#path-effect1893"
     inkscape:original-d="M 0.13986797,9.9234375 C 3.8535515,7.3214632 7.5661002,4.7183546 11.277516,2.1141103 c 9.282693,0.00113 18.563881,0.00113 27.844122,0 2.599969,3.7199372 5.198701,7.4385886 7.796353,11.1561817 C 53.787478,11.969847 60.655556,10.668318 67.52264,9.3656277 71.607658,6.0198419 75.691382,2.6730543 79.774053,-0.67493511 84.972859,5.0903425 90.170322,10.854255 95.366757,16.617147 c -1.855175,5.021516 -3.71141,10.041697 -5.568817,15.060845 1.671813,6.694978 3.342423,13.388553 5.011938,20.081127 2.04308,9.112198 4.084941,18.222898 6.125712,27.332645 C 93.511466,83.36952 86.086519,87.645971 78.660289,91.921369 66.781025,94.711606 54.901105,97.500597 43.019813,100.28851 42.278422,97.50054 41.535927,94.711549 40.792284,91.921369 29.284284,91.550631 17.775611,91.178763 6.265575,90.805755 6.4523387,79.650485 6.6379631,68.494525 6.8224568,57.337208 4.2983459,50.400629 1.7732139,43.462937 -0.75308873,36.523723 3.629605,33.79364 8.0107519,31.062971 12.391281,28.331138 8.3085274,22.19625 4.2248061,16.060472 0.13986797,9.9234375 Z"
     sodipodi:nodetypes="cccccccccccccccccc" /><circle
     style="fill:#efef34;fill-opacity:1;stroke-width:0.773025"
     id="path220"
     cx="50"
     cy="45"
     r="30" /></svg>

<svg xmlns="http://www.w3.org/2000/svg" viewBox="0 0 100 100" xmlns:v="https://vecta.io/nano"><path d="M4.039 11.69c-.186-4.37 3.527-6.973 10.024-8.275s15.779-1.301 21.719.559 8.539 5.579 13.272 6.787 11.602-.094 17.077-2.418 9.559-5.671 14.201-4.462 9.839 6.973 11.509 12.365-.186 10.412-.279 16.27 1.578 12.551 3.434 20.453 3.898 17.013 1.206 23.706-10.117 10.969-19.769 14.502-21.532 6.322-27.844 6.323-7.054-2.788-13.179-4.369-17.634-1.953-23.296-7.717-5.477-16.92-6.646-25.966-3.695-15.985-2.767-20.82 5.309-7.566 5.458-11.999S4.225 16.061 4.039 11.69z" fill="#0ff"/><circle cx="50" cy="45" r="30" fill="#ffff05"/></svg>
